flaticon/fitness/proteins-1.svg

<svg xmlns="http://www.w3.org/2000/svg" width="32" height="32" viewBox="0 0 24 24">
    <path d="M 13.960938 14.238281 C 13.878906 14.078125 13.761719 14 13.601562 14 L 11.359375 14 L 13.078125 12.28125 C 13.238281 12.121094 13.238281 11.878906 13.078125 11.71875 C 12.921875 11.558594 12.679688 11.558594 12.519531 11.71875 L 10.121094 14.121094 C 10 14.238281 10 14.441406 10.039062 14.601562 C 10.078125 14.761719 10.238281 14.839844 10.398438 14.839844 L 12.71875 14.839844 L 10.878906 16.960938 C 10.71875 17.121094 10.761719 17.359375 10.917969 17.519531 C 11 17.558594 11.121094 17.601562 11.199219 17.601562 C 11.320312 17.601562 11.441406 17.558594 11.519531 17.480469 L 13.917969 14.679688 C 14 14.558594 14.039062 14.398438 13.960938 14.238281 Z M 13.960938 14.238281"/>
    <path d="M 17.039062 10.28125 C 17.035156 10.261719 17.03125 10.246094 17.023438 10.230469 C 16.921875 9.875 16.78125 9.527344 16.601562 9.199219 L 15.839844 7.800781 C 15.191406 6.617188 14.835938 5.289062 14.804688 3.917969 C 15.265625 3.738281 15.601562 3.285156 15.601562 2.761719 L 15.601562 1.238281 C 15.601562 0.558594 15.039062 0 14.359375 0 L 9.640625 0 C 8.960938 0 8.398438 0.558594 8.398438 1.238281 L 8.398438 2.761719 C 8.398438 3.285156 8.734375 3.738281 9.195312 3.917969 C 9.164062 5.289062 8.808594 6.617188 8.160156 7.800781 L 7.398438 9.199219 C 7.21875 9.527344 7.078125 9.875 6.976562 10.230469 C 6.96875 10.246094 6.964844 10.261719 6.960938 10.28125 C 6.839844 10.679688 6.800781 11.121094 6.800781 11.519531 L 6.800781 22.558594 C 6.800781 23.359375 7.441406 24 8.238281 24 L 15.71875 24 C 16.558594 24 17.199219 23.359375 17.199219 22.519531 L 17.199219 11.519531 C 17.199219 11.121094 17.160156 10.679688 17.039062 10.28125 Z M 7.601562 11.519531 C 7.601562 11.328125 7.613281 11.132812 7.644531 10.933594 C 7.652344 10.890625 7.664062 10.84375 7.679688 10.800781 L 16.300781 10.800781 C 16.339844 11.039062 16.359375 11.277344 16.359375 11.519531 L 16.359375 18.398438 L 7.601562 18.398438 Z M 9.640625 0.800781 L 14.359375 0.800781 C 14.601562 0.800781 14.800781 1 14.800781 1.238281 L 14.800781 1.601562 L 12.398438 1.601562 C 12.160156 1.601562 12 1.761719 12 2 C 12 2.238281 12.160156 2.398438 12.398438 2.398438 L 14.800781 2.398438 L 14.800781 2.761719 C 14.800781 3 14.601562 3.199219 14.359375 3.199219 L 9.640625 3.199219 C 9.398438 3.199219 9.199219 3 9.199219 2.761719 L 9.199219 2.398438 L 10 2.398438 C 10.199219 2.398438 10.398438 2.238281 10.398438 2 C 10.398438 1.761719 10.238281 1.601562 10 1.601562 L 9.199219 1.601562 L 9.199219 1.238281 C 9.199219 1 9.398438 0.800781 9.640625 0.800781 Z M 8.878906 8.199219 C 9.558594 6.921875 9.960938 5.480469 10 4 L 14 4 C 14.039062 5.480469 14.441406 6.921875 15.121094 8.160156 L 15.878906 9.558594 C 15.957031 9.703125 16.023438 9.851562 16.082031 10 L 7.894531 10 C 7.949219 9.863281 8.011719 9.730469 8.078125 9.601562 Z M 15.71875 23.199219 L 8.238281 23.199219 C 7.878906 23.199219 7.601562 22.921875 7.601562 22.519531 L 7.601562 22.398438 L 9.601562 22.398438 C 9.800781 22.398438 10 22.238281 10 22 C 10 21.761719 9.839844 21.601562 9.601562 21.601562 L 7.601562 21.601562 L 7.601562 20.800781 L 8.800781 20.800781 C 9 20.800781 9.199219 20.640625 9.199219 20.398438 C 9.199219 20.160156 9.039062 20 8.800781 20 L 7.601562 20 L 7.601562 19.199219 L 16.359375 19.199219 L 16.359375 22.558594 C 16.359375 22.921875 16.078125 23.199219 15.71875 23.199219 Z M 15.71875 23.199219"/>
</svg>

<svg xmlns="http://www.w3.org/2000/svg" width="32" height="32" viewBox="0 0 24 24">
    <path d="M13.96 14.238c-.081-.16-.198-.238-.358-.238h-2.243l1.72-1.719a.39.39 0 0 0 0-.562.385.385 0 0 0-.56 0l-2.398 2.402c-.121.117-.121.32-.082.48.04.16.2.239.36.239h2.32l-1.84 2.12c-.16.161-.117.4.039.56.082.039.203.082.281.082a.46.46 0 0 0 .32-.122l2.399-2.8a.432.432 0 0 0 .043-.442zm0 0"/>
    <path d="M17.04 10.281a5.022 5.022 0 0 0-.438-1.082l-.762-1.398a8.47 8.47 0 0 1-1.035-3.883c.46-.18.797-.633.797-1.156V1.238c0-.68-.563-1.238-1.243-1.238H9.641c-.68 0-1.243.559-1.243 1.238v1.524c0 .523.336.976.797 1.156A8.47 8.47 0 0 1 8.16 7.801l-.762 1.398a5.022 5.022 0 0 0-.437 1.082 4.35 4.35 0 0 0-.16 1.239v11.039c0 .8.64 1.441 1.437 1.441h7.48c.84 0 1.481-.64 1.481-1.48v-11c0-.399-.039-.84-.16-1.239zM7.601 11.52c0-.192.011-.387.043-.586a.834.834 0 0 1 .035-.133h8.62c.04.238.06.476.06.719v6.878H7.601zM9.64.8h4.718c.243 0 .442.2.442.438v.364h-2.403c-.238 0-.398.16-.398.398 0 .238.16.398.398.398h2.403v.364c0 .238-.2.437-.442.437H9.641a.443.443 0 0 1-.442-.437v-.364H10A.4.4 0 0 0 10.398 2c0-.238-.16-.398-.398-.398h-.8v-.364c0-.238.198-.437.44-.437zm-.762 7.4A9.505 9.505 0 0 0 10 4h4a9.205 9.205 0 0 0 1.121 4.16l.758 1.399c.078.144.144.293.203.441H7.895c.054-.137.117-.27.183-.398zm6.84 15h-7.48c-.36 0-.637-.278-.637-.68v-.122h2A.4.4 0 0 0 10 22c0-.238-.16-.398-.398-.398h-2V20.8H8.8a.4.4 0 0 0 .398-.403c0-.238-.16-.398-.398-.398H7.6v-.8h8.758v3.359c0 .363-.28.64-.64.64zm0 0"/>
</svg>
